build/img/logo_blue.svg

<svg width="42" height="22" viewBox="0 0 42 22" fill="none" xmlns="http://www.w3.org/2000/svg">
<path fill-rule="evenodd" clip-rule="evenodd" d="M0.54211 18.0197L8.80358 7.26166L11.0637 8.42713L16.4415 0L19.7928 3.8551L21.0399 2.86887L25.872 8.78584L29.3013 4.84111L38.8875 18.0197L29.652 6.81358L28.249 11.5202L29.535 15.2407L21.2736 4.25849L21.1842 8.00563L25.872 18.0197L17.1038 2.51017L19.6369 10.8926L16.0909 2.73432L14.1424 8.15829L14.5319 4.61695L9.66076 17.3922L10.2452 12.0132L8.21887 9.86169L0.54211 18.0197Z" fill="#011C40"/>
<path fill-rule="evenodd" clip-rule="evenodd" d="M41.6649 19.7024C28.5846 9.51097 8.22544 23.522 0 18.1188C9.04339 25.7756 30.1812 12.832 41.6649 19.7024Z" fill="#011C40"/>
<path fill-rule="evenodd" clip-rule="evenodd" d="M42 20.5038C31.7374 14.1941 16.4741 22.9749 8.65134 20.9415C17.128 24.9111 32.9089 16.1156 42 20.5038Z" fill="#011C40"/>
</svg>

<svg width="42" height="22" fill="none" xmlns="http://www.w3.org/2000/svg"><path fill-rule="evenodd" clip-rule="evenodd" d="M.542 18.02L8.804 7.262l2.26 1.165L16.442 0l3.35 3.855 1.248-.986 4.832 5.917 3.43-3.945 9.586 13.179-9.236-11.206-1.403 4.706 1.286 3.72-8.261-10.982-.09 3.748 4.688 10.014-8.768-15.51 2.533 8.383-3.546-8.159-1.949 5.424.39-3.541L9.66 17.392l.584-5.379L8.22 9.862.542 18.02z" fill="#011C40"/><path fill-rule="evenodd" clip-rule="evenodd" d="M41.665 19.702C28.585 9.511 8.225 23.522 0 18.12c9.043 7.657 30.181-5.287 41.665 1.583z" fill="#011C40"/><path fill-rule="evenodd" clip-rule="evenodd" d="M42 20.504c-10.263-6.31-25.526 2.47-33.349.438 8.477 3.97 24.258-4.826 33.349-.438z" fill="#011C40"/></svg>
